X: 20184
T: GIPSY QUADRILLES No 5.--la Trenise
%R: march, reel
B: W. Hamilton "Universal Tune-Book" Vol. 2 Glasgow 1846 p.18 #4 (and p.19 #1)
S: http://s3-eu-west-1.amazonaws.com/itma.dl.printmaterial/book_pdfs/hamiltonvol2web.pdf
Z: 2016 John Chambers <jc:trillian.mit.edu>
M: 2/4
L: 1/16
K: G
% - - - - - - - - - - - - - - - - - - - - - - - - -
D2 |\
.G2.B2.d2.g2 | f2a2 d2cB | A2e2c2A2 | (G4 F2)D2 |\
.G2.B2.d2.g2 | fgag fedc | BAfe dcBA | G4 g4 H|:\
D4 G2A2 | B4 .e2d2 | .g2.d2.B2.d2 | A2DD D2DD |
G2FG A2GA | B2AB ^c2de | f4 ed^cd | B4- B2"^D.C."z2 :|\
=c2cc c2d2 | c2de =fgab | c'4 ^f4 | g6 b2 |\
a2d2a2d2 | g2d2b2d2 | =f2B2 a2g2 | c4 c2B"^D.C."A |]
% - - - - - - - - - - - - - - - - - - - - - - - - -

% (Continued from previous page)

%%sep 1 1 500
%%sep 1 1 500

